X: 19572
T: James McMahon's
R: jig
M: 6/8
K: Dmajor
|:a|fed edB|AdB AFA|BAF DEF|ABd ede|
~f3 edB|AdB AFA|BAF DEF|Adc d2:|
|:e|def ~a3|baf ede|f2d edB|ABd edB|
def ~a3|baf edB|def edB|Adc d2:|

